ui/StatusQ/src/assets/img/icons/crown-off.svg

<svg fill="none" height="26" viewBox="0 0 28 26" width="28" xmlns="http://www.w3.org/2000/svg"><path clip-rule="evenodd" d="m3.9549.987813c-.36917-.369167-.96771-.369167-1.33688 0s-.36917.967707 0 1.336877l22.68748 22.68751c.3692.3692.9677.3692 1.3369 0s.3692-.9677 0-1.3369l-3.3125-3.3125c.2936-2.8285.677-6.3221 1.0229-8.9274.038-.2862.2687-.5016.5478-.5755 1.4232-.377 2.4722-1.6738 2.4722-3.21562 0-1.83704-1.4892-3.32626-3.3261-3.32626-1.837 0-3.3261 1.48922-3.3261 3.32626 0 .1007.0045.20035.0132.29877.029.32558-.134.65832-.4503.74066-.6087.15843-1.2219.20907-1.8081.11135-.5807-.09682-1.1859-.3475-1.7723-.85813-.2634-.22935-.2282-.63116-.013-.90622.4418-.56463.7052-1.27566.7052-2.0482 0-1.83704-1.4891-3.32626-3.3261-3.32626s-3.3261 1.48922-3.3261 3.32626c0 .77275.2635 1.48395.7055 2.04866.2154.27509.2506.67704-.0129.90639-.0982.08547-.1969.16366-.296.23506zm8.5334 8.533367 7.8206 7.82062h.8758c.3216 0 .5916-.2421.6269-.5617.2209-2.0026.4598-4.0444.6833-5.7154.0357-.2673-.1094-.5255-.3315-.6784-.1984-.1365-.4525-.1826-.6787-.1-1.0161.371-2.1585.5673-3.3202.3736-1.2665-.2111-2.4603-.86981-3.4725-2.09035-.1432-.17267-.3618-.2634-.5861-.26097l-.0367.00019-.0358-.00018c-.2242-.00237-.4428.08836-.5859.26097-.3043.36696-.625.68313-.9592.95162zm-10.3881-4.54125c.22407-.16777.53286-.11937.73079.07856l4.41641 4.41641c.4172.4172.09179 1.05-.46562.8566-.06762-.0234-.13472-.0477-.20125-.0727-.18052-.0678-.38246-.0329-.53858.0803-.17382.126-.27498.3359-.23667.5472.31874 1.7574.63939 3.8919.87276 5.8943.03722.3194.30692.5612.62841.5612h7.54685c.1672 0 .3274.0664.4456.1846l.6302.6302c.3971.397.1159 1.0759-.4456 1.0759h-7.90961c-.36231 0-.64994.3046-.63331.6665.03193.6955.05613 1.4518.07165 2.1446.0077.3441.28807.6203.63227.6203h12.5308c.1672 0 .3275.0664.4457.1845l1.0831 1.0832c.2323.2323.1526.6229-.1758.6229h-14.86348c-.8431 0-1.5173-.6816-1.52644-1.5126-.01602-1.4553-.08662-3.6027-.19004-4.663-.21813-2.2364-.59012-4.8375-.9625-6.9281-.05088-.2856-.29377-.4913-.57781-.5506-1.50898-.3153-2.642405-1.65324-2.642405-3.25592 0-1.09009.524345-2.0577 1.334575-2.66435z" fill="#ff2d55" fill-rule="evenodd"/></svg>

<svg width="28" height="26" viewBox="0 0 28 26" fill="none" xmlns="http://www.w3.org/2000/svg">
<path fill-rule="evenodd" clip-rule="evenodd" d="M3.9549 0.987813C3.58573 0.618646 2.98719 0.618646 2.61802 0.987813C2.24885 1.35698 2.24885 1.95552 2.61802 2.32469L25.3055 25.0122C25.6747 25.3814 26.2732 25.3814 26.6424 25.0122C27.0116 24.643 27.0116 24.0445 26.6424 23.6753L23.3299 20.3628C23.6235 17.5343 24.0069 14.0407 24.3528 11.4354C24.3908 11.1492 24.6215 10.9338 24.9006 10.8599C26.3238 10.4829 27.3728 9.1861 27.3728 7.64428C27.3728 5.80724 25.8836 4.31802 24.0467 4.31802C22.2097 4.31802 20.7206 5.80724 20.7206 7.64428C20.7206 7.74498 20.7251 7.84463 20.7338 7.94305C20.7628 8.26863 20.5998 8.60137 20.2835 8.68371C19.6748 8.84214 19.0616 8.89278 18.4754 8.79506C17.8947 8.69824 17.2895 8.44756 16.7031 7.93693C16.4397 7.70758 16.4749 7.30577 16.6901 7.03071C17.1319 6.46608 17.3953 5.75505 17.3953 4.98251C17.3953 3.14547 15.9062 1.65625 14.0692 1.65625C12.2322 1.65625 10.7431 3.14547 10.7431 4.98251C10.7431 5.75526 11.0066 6.46646 11.4486 7.03117C11.664 7.30626 11.6992 7.70821 11.4357 7.93756C11.3375 8.02303 11.2388 8.10122 11.1397 8.17262L3.9549 0.987813ZM12.4883 9.52118L20.3089 17.3418H21.1847C21.5063 17.3418 21.7763 17.0997 21.8116 16.7801C22.0325 14.7775 22.2714 12.7357 22.4949 11.0647C22.5306 10.7974 22.3855 10.5392 22.1634 10.3863C21.965 10.2498 21.7109 10.2037 21.4847 10.2863C20.4686 10.6573 19.3262 10.8536 18.1645 10.6599C16.898 10.4488 15.7042 9.79009 14.692 8.56955C14.5488 8.39688 14.3302 8.30615 14.1059 8.30858L14.0692 8.30877L14.0334 8.30859C13.8092 8.30622 13.5906 8.39695 13.4475 8.56956C13.1432 8.93652 12.8225 9.25269 12.4883 9.52118ZM2.1002 4.97993C2.32427 4.81216 2.63306 4.86056 2.83099 5.05849L7.2474 9.4749C7.6646 9.8921 7.33919 10.5249 6.78178 10.3315C6.71416 10.3081 6.64706 10.2838 6.58053 10.2588C6.40001 10.191 6.19807 10.2259 6.04195 10.3391C5.86813 10.4651 5.76697 10.675 5.80528 10.8863C6.12402 12.6437 6.44467 14.7782 6.67804 16.7806C6.71526 17.1 6.98496 17.3418 7.30645 17.3418H14.8533C15.0205 17.3418 15.1807 17.4082 15.2989 17.5264L15.9291 18.1566C16.3262 18.5536 16.045 19.2325 15.4835 19.2325H7.57389C7.21158 19.2325 6.92395 19.5371 6.94058 19.899C6.97251 20.5945 6.99671 21.3508 7.01223 22.0436C7.01993 22.3877 7.3003 22.6639 7.6445 22.6639H20.1753C20.3425 22.6639 20.5028 22.7303 20.621 22.8484L21.7041 23.9316C21.9364 24.1639 21.8567 24.5545 21.5283 24.5545H6.66482C5.82172 24.5545 5.14752 23.8729 5.13838 23.0419C5.12236 21.5866 5.05176 19.4392 4.94834 18.3789C4.73021 16.1425 4.35822 13.5414 3.98584 11.4508C3.93496 11.1652 3.69207 10.9595 3.40803 10.9002C1.89905 10.5849 0.765625 9.24696 0.765625 7.64428C0.765625 6.55419 1.28997 5.58658 2.1002 4.97993Z" fill="#FF2D55"/>
</svg>
